icon-themes/sifr_svg/cmd/sc_linearrowsquare.svg

<svg viewBox="0 0 16 16" xmlns="http://www.w3.org/2000/svg"><path d="m5 4c-.30945 0-.55232.0903-.75.28125l-4.25 3.71875c1.41667 1.073 2.83333 2.64575 4.25 3.71875.19768.19095.44055.28125.75.28125h.5859375.4140625v-1c0-.25689-.12983-.52846-.3125-.71875l-1.4648438-1.2441406h5.7773438v1.9628906h6v-6h-6v1.9628906h-5.7773438l1.4648438-1.2441406c.18267-.19029.3125-.46186.3125-.71875v-1h-.4140625z" fill="#555753"/></svg>

<svg xmlns="http://www.w3.org/2000/svg" viewBox="0 0 16 16">
 <path
     style="fill:#555753"
     d="M 5 4 C 4.69055 4 4.44768 4.0903 4.25 4.28125 L 0 8 C 1.41667 9.073 2.83333 10.64575 4.25 11.71875 C 4.44768 11.9097 4.69055 12 5 12 L 5.5859375 12 L 6 12 L 6 11 C 6 10.74311 5.87017 10.47154 5.6875 10.28125 L 4.2226562 9.0371094 L 10 9.0371094 L 10 11 L 16 11 L 16 5 L 10 5 L 10 6.9628906 L 4.2226562 6.9628906 L 5.6875 5.71875 C 5.87017 5.52846 6 5.25689 6 5 L 6 4 L 5.5859375 4 L 5 4 z "
     />
 </svg>
